X:198
T: IM STILLEN HEITERN GLANZE TRITT ER SO MILD DAHER
N: B0236
O: Europa, Mitteleuropa, Deutschland
N: Schlusston korrigiert (Druckfehler ?)
R: Tageszeiten - Lied, Abend
M: 4/4
L: 1/4
K: F
F | ccBB | A2G
c | cFBA | G2z
G | BBAA | d2c
B | AAGG | F2z

@@@ Tune index: 2001
